images/form/dish-1.svg

<svg width="87" height="31" viewBox="0 0 87 31" fill="none" xmlns="http://www.w3.org/2000/svg">
<path d="M10.0305 22.6868C9.33786 21.8914 9.13995 20.8307 8.97503 19.8033C8.64519 17.4168 8.71116 14.8647 8.64519 12.3789C6.63314 15.2624 5.04989 18.1792 3.1368 21.4605C2.9389 21.6925 2.83994 21.8582 2.5101 21.9908C2.21324 21.9908 1.94937 21.9577 1.71848 21.6262C0.135227 18.6763 -0.161632 15.0636 0.0692585 11.484C0.0692585 11.2519 0.135227 10.8542 0.399102 10.7548C0.827898 10.6222 1.15774 10.9868 1.15774 11.2519C0.959836 14.5664 1.32266 17.7151 2.41115 20.5656C3.5656 18.5769 4.48916 16.9197 5.47869 15.2956C6.5012 13.6052 7.58969 11.9811 8.97503 10.125C9.23891 9.92616 9.60173 10.0587 9.73367 10.3239C9.83262 13.5058 9.79964 16.6214 10.0635 19.6707C10.1295 20.665 10.3604 21.6262 10.4263 22.5543C10.4263 22.6868 10.1295 22.8194 10.0305 22.6868Z" fill="#262626"/>
<path d="M17.8769 21.7588C16.6235 22.3885 15.2382 22.7531 13.7539 22.9188C13.3251 22.9851 12.6654 23.0183 12.2696 22.6537C11.8408 22.3554 11.9068 21.6925 12.0057 21.361C12.0717 21.1953 12.4345 21.0627 12.5335 21.2948C12.5335 21.3279 12.5665 21.3942 12.5665 21.4605C12.6324 21.6262 12.7314 21.8251 12.9293 21.8914C14.4136 21.8251 15.7989 21.5268 17.0523 20.897C18.3717 20.2673 19.1963 19.6044 20.1199 18.4112C20.3837 18.0797 20.4497 17.682 20.2848 17.3837C20.0869 16.9197 19.5921 16.4556 19.1303 16.2236C18.5696 15.9585 17.8769 15.859 17.1183 15.8259C16.4586 15.8259 15.733 15.859 15.0073 15.8922C14.8094 15.8922 14.6445 15.6933 14.6115 15.5276C14.5785 15.2956 14.6445 15.163 14.7764 15.0304L15.1063 14.7984C15.535 14.6658 15.9968 14.6658 16.3926 14.699C16.8214 14.7321 17.2172 14.7984 17.6131 14.7653C18.0089 14.7653 18.4377 14.5996 18.7345 14.2018L19.3612 13.5389C19.5262 13.3069 19.6251 13.0749 19.5262 12.8097C18.8995 12.0143 18.1408 11.5834 17.2832 11.2519C16.2937 10.8874 15.1722 10.7548 14.0178 10.6553C13.7869 10.5228 13.7209 10.0919 13.9188 9.89302C14.2816 9.59472 14.7104 9.56157 15.1063 9.59472C15.9968 9.661 17.1843 9.92616 17.9429 10.2576C19.0314 10.7216 19.955 11.3845 20.5817 12.4452C20.8785 13.108 20.5817 13.8041 20.1529 14.235C19.823 14.5995 19.4272 14.8647 19.0314 15.1299C19.7241 15.4282 20.6476 15.859 21.1094 16.5219C21.6701 17.2511 21.6042 18.146 21.2084 18.8752C20.6146 20.0684 19.0314 21.1622 17.8769 21.7588Z" fill="#262626"/>
<path d="M33.8875 11.2851H33.7226C33.6236 11.2851 33.4917 11.2188 33.4587 11.0531C33.4257 10.7879 33.5247 10.5559 33.7226 10.357C34.2503 9.89302 34.844 9.69415 35.5037 9.72729C35.9655 9.76044 36.4273 9.82673 36.8891 9.99245L38.1425 10.4233C39.9236 11.0199 41.4739 12.6109 42.3315 14.3344C42.7933 15.2956 42.9582 16.2899 42.7273 17.3837C42.4964 18.378 41.9027 19.3061 41.1111 20.0684C39.132 21.9577 36.6582 22.5211 33.9205 22.5211C33.8875 24.7749 33.7555 27.2939 34.0524 29.5146C34.0524 29.6141 34.1184 29.7466 34.1843 29.8461C34.2173 30.0118 34.2833 30.1444 34.1514 30.3432C33.8875 30.5421 33.6236 30.4758 33.3927 30.3432C33.0629 29.9786 32.9309 29.5809 32.898 29.1169C32.6671 26.7636 32.766 24.4766 32.898 22.0902C32.6011 21.8251 32.1393 21.4605 32.0404 21.0627C32.0404 20.9302 32.0733 20.7976 32.1393 20.7313C32.2383 20.5656 32.3702 20.5324 32.4362 20.5987C32.5351 20.6982 32.733 20.8307 32.898 20.9302C33.0959 17.6157 33.3268 14.467 33.8875 11.2851ZM40.4184 13.4395C39.6927 12.5446 38.6702 11.9148 37.6807 11.484C37.1199 11.2188 35.5367 10.6222 34.943 10.8874C34.976 11.3514 34.91 12.18 34.844 12.5446C34.3822 15.3619 34.0854 18.378 34.0524 21.361C36.3283 21.5268 38.5053 20.8307 40.2535 19.3061C41.21 18.4775 41.7707 17.3174 41.6718 16.1242C41.6058 15.1299 40.9791 14.1355 40.4184 13.4395Z" fill="#262626"/>
<path d="M49.8305 21.0296C48.9729 21.7919 47.9174 22.2891 46.8949 22.5211C46.0703 22.72 44.9158 22.8194 44.2232 22.1234C44.0253 21.9577 43.7284 21.4273 44.0253 21.129C44.2562 21.2948 44.4211 21.4273 44.619 21.5268C44.7509 21.6262 44.8829 21.6925 45.0478 21.6925C45.0148 19.4055 45.1467 14.9973 45.2127 12.7766C45.2457 12.2463 45.1797 11.6828 45.2127 11.1525C45.2787 10.6222 45.3776 10.0919 45.8064 9.69415C46.1033 9.59472 46.3672 9.52843 46.5321 9.85987C46.3672 10.4565 46.3672 11.5171 46.3342 12.6772C46.3342 13.7378 46.3342 14.8647 46.3012 15.6602C46.763 15.3287 47.4227 15.0636 48.0494 14.9973C48.808 14.931 49.5996 15.0636 50.2263 15.4282C51.2159 15.9585 51.8096 17.1185 51.5457 18.3117C51.3478 19.3392 50.6551 20.3004 49.8305 21.0296ZM50.2593 16.9528C49.8635 16.3231 49.1708 16.0911 48.4122 16.0911C47.6535 16.1242 46.8289 16.4225 46.3342 16.8865L46.0703 21.6262C47.0928 21.3942 48.1483 20.9302 49.0059 20.201C49.5996 19.7038 50.1604 19.1072 50.3912 18.3449C50.5562 17.8809 50.5232 17.3174 50.2593 16.9528ZM57.1201 22.8857C56.2954 22.6537 56.2954 21.8251 56.1965 21.1622C55.7017 17.3837 55.9986 13.7378 56.4934 9.99245C56.7902 9.52843 57.318 9.92616 57.4499 10.1913C57.4829 10.9536 57.4499 11.6828 57.3509 12.4452C57.285 13.1743 57.186 13.9367 57.186 14.699C57.153 15.9916 57.0871 17.3174 57.1201 18.6432C57.1201 19.9358 57.252 21.2616 57.4499 22.488C57.4829 22.6537 57.285 22.8857 57.1201 22.8857Z" fill="#262626"/>
<path d="M70.3293 2.46862C69.6036 2.73378 68.812 2.8995 68.0863 3.16466C66.7669 3.59554 65.8764 4.159 64.9528 5.18648C64.0292 6.18082 63.4355 7.37403 62.9078 8.63352C62.38 9.92616 62.0172 11.3514 61.6214 12.7103C62.8088 11.8817 64.1942 11.1525 65.6455 10.9205C66.9319 10.6885 68.3502 10.9536 69.4717 11.6828C70.6591 12.4452 71.4507 13.7709 71.7806 15.163C72.1104 16.6545 71.9785 18.0466 71.2198 19.3724C70.5601 20.5656 69.5376 21.5599 68.2842 22.1565C67.2287 22.6868 65.8434 22.8526 64.59 22.6537C63.1387 22.4548 61.9842 21.7919 61.1266 20.6319C60.2031 19.3724 59.9392 17.8477 59.9722 16.2899C60.0381 14.1355 60.6648 11.8154 61.2256 10.0587C61.9182 7.93748 62.9078 5.61736 64.623 3.96013C65.4476 3.16466 66.4371 2.53491 67.4926 2.17032C68.2183 1.93831 68.9769 1.77259 69.7355 1.54057C70.4612 1.30856 71.1539 1.01026 71.7806 0.479947C71.9785 0.446803 72.3083 0.479947 72.3743 0.678816C72.5062 0.877683 72.5062 1.14284 72.3743 1.30856C71.7476 1.87202 71.0549 2.23661 70.3293 2.46862ZM70.2633 14.2681C69.8345 13.3069 68.9769 12.5777 68.0203 12.2794C67.0638 11.948 65.8434 12.0143 64.8868 12.3126C63.5675 12.7103 62.347 13.5058 61.2915 14.467C60.9947 15.9253 61.0277 17.682 61.5224 19.0078C61.7533 19.6707 62.2151 20.2673 62.8088 20.7313C63.7984 21.5268 64.8209 21.6262 66.0743 21.4936C67.4266 21.361 68.647 20.7313 69.6366 19.7038C70.4282 18.9083 70.758 18.1129 70.791 16.9528C70.824 15.9916 70.6261 15.0304 70.2633 14.2681Z" fill="#262626"/>
<path d="M79.3682 21.0296C78.5107 21.7919 77.4552 22.2891 76.4326 22.5211C75.608 22.72 74.4536 22.8194 73.7609 22.1234C73.563 21.9577 73.2661 21.4273 73.563 21.129C73.7939 21.2948 73.9588 21.4273 74.1567 21.5268C74.2887 21.6262 74.4206 21.6925 74.5855 21.6925C74.5525 19.4055 74.6845 14.9973 74.7504 12.7766C74.7834 12.2463 74.7175 11.6828 74.7504 11.1525C74.8164 10.6222 74.9154 10.0919 75.3442 9.69415C75.641 9.59472 75.9049 9.52843 76.0698 9.85987C75.9049 10.4565 75.9049 11.5171 75.8719 12.6772C75.8719 13.7378 75.8719 14.8647 75.8389 15.6602C76.3007 15.3287 76.9604 15.0636 77.5871 14.9973C78.3457 14.931 79.1374 15.0636 79.7641 15.4282C80.7536 15.9585 81.3473 17.1185 81.0834 18.3117C80.8855 19.3392 80.1929 20.3004 79.3682 21.0296ZM79.797 16.9528C79.4012 16.3231 78.7086 16.0911 77.9499 16.0911C77.1913 16.1242 76.3667 16.4225 75.8719 16.8865L75.608 21.6262C76.6305 21.3942 77.686 20.9302 78.5436 20.201C79.1374 19.7038 79.6981 19.1072 79.929 18.3449C80.0939 17.8809 80.0609 17.3174 79.797 16.9528ZM86.6578 22.8857C85.8332 22.6537 85.8332 21.8251 85.7342 21.1622C85.2395 17.3837 85.5363 13.7378 86.0311 9.99245C86.3279 9.52843 86.8557 9.92616 86.9876 10.1913C87.0206 10.9536 86.9876 11.6828 86.8887 12.4452C86.8227 13.1743 86.7238 13.9367 86.7238 14.699C86.6908 15.9916 86.6248 17.3174 86.6578 18.6432C86.6578 19.9358 86.7897 21.2616 86.9876 22.488C87.0206 22.6537 86.8227 22.8857 86.6578 22.8857Z" fill="#262626"/>
</svg>

<svg width="87" height="31" fill="none" xmlns="http://www.w3.org/2000/svg"><path d="M10.03 22.687c-.692-.796-.89-1.856-1.055-2.884-.33-2.386-.264-4.938-.33-7.424-2.012 2.883-3.595 5.8-5.508 9.082-.198.232-.297.397-.627.53-.297 0-.56-.033-.792-.365C.135 18.676-.162 15.064.07 11.484c0-.232.066-.63.33-.73.429-.132.759.233.759.498-.198 3.314.165 6.463 1.253 9.314 1.155-1.99 2.078-3.646 3.068-5.27a62.446 62.446 0 0 1 3.496-5.171c.264-.199.627-.066.759.199.099 3.182.066 6.297.33 9.347.066.994.296 1.955.362 2.883 0 .133-.296.265-.396.133zM17.877 21.759c-1.253.63-2.639.994-4.123 1.16-.429.066-1.089.1-1.484-.265-.43-.299-.363-.962-.264-1.293.066-.166.428-.298.527-.066 0 .033.034.1.034.165.065.166.164.365.362.431 1.485-.066 2.87-.364 4.123-.994 1.32-.63 2.144-1.293 3.068-2.486.264-.331.33-.729.165-1.027-.198-.464-.693-.928-1.155-1.16-.56-.265-1.253-.365-2.012-.398-.66 0-1.385.033-2.11.066-.199 0-.363-.199-.396-.364a.52.52 0 0 1 .164-.498l.33-.232c.429-.132.89-.132 1.287-.099.428.033.824.1 1.22.066.396 0 .825-.165 1.122-.563l.626-.663c.165-.232.264-.464.165-.73-.627-.795-1.385-1.226-2.243-1.557-.99-.365-2.11-.497-3.265-.597-.231-.132-.297-.563-.1-.762.364-.298.792-.331 1.188-.298.89.066 2.078.331 2.837.663 1.088.464 2.012 1.127 2.639 2.187.296.663 0 1.36-.43 1.79-.329.365-.725.63-1.12.895.692.298 1.616.729 2.077 1.392.561.73.495 1.624.1 2.353-.594 1.193-2.178 2.287-3.332 2.884zM33.888 11.285h-.165a.273.273 0 0 1-.264-.232c-.033-.265.066-.497.264-.696a2.416 2.416 0 0 1 1.78-.63c.462.033.924.1 1.386.265l1.253.431c1.782.597 3.332 2.188 4.19 3.911.461.962.626 1.956.395 3.05-.23.994-.824 1.922-1.616 2.684-1.979 1.89-4.453 2.453-7.19 2.453-.033 2.254-.166 4.773.131 6.994 0 .1.066.232.132.331.033.166.1.298-.033.497-.264.2-.527.133-.758 0-.33-.364-.462-.762-.495-1.226-.23-2.353-.132-4.64 0-7.027-.297-.265-.759-.63-.858-1.027 0-.133.033-.265.1-.332.098-.165.23-.199.296-.132.1.1.297.232.462.331.198-3.314.429-6.463.99-9.645zm6.53 2.155c-.725-.895-1.748-1.525-2.737-1.956-.561-.265-2.144-.862-2.738-.597.033.464-.033 1.293-.099 1.658-.462 2.817-.759 5.833-.792 8.816 2.276.166 4.453-.53 6.202-2.055.956-.829 1.517-1.989 1.418-3.182-.066-.994-.693-1.988-1.254-2.684zM49.83 21.03a6.701 6.701 0 0 1-2.935 1.491c-.825.199-1.98.298-2.672-.398-.198-.165-.495-.696-.198-.994.231.166.396.298.594.398.132.1.264.165.429.165-.033-2.287.099-6.695.165-8.915.033-.53-.033-1.094 0-1.624.066-.53.165-1.061.593-1.459.297-.1.561-.166.726.166-.165.597-.165 1.657-.198 2.817 0 1.06 0 2.188-.033 2.983a3.858 3.858 0 0 1 1.748-.663c.759-.066 1.55.067 2.177.431.99.53 1.584 1.69 1.32 2.884-.198 1.027-.89 1.988-1.715 2.718zm.43-4.077c-.396-.63-1.09-.862-1.848-.862-.758.033-1.583.331-2.078.796l-.264 4.74c1.023-.233 2.078-.697 2.936-1.426.594-.497 1.154-1.094 1.385-1.856.165-.464.132-1.028-.132-1.392zm6.86 5.933c-.825-.232-.825-1.06-.923-1.724-.495-3.778-.198-7.424.296-11.17.297-.464.825-.066.957.2.033.762 0 1.49-.1 2.253-.065.73-.164 1.492-.164 2.254-.033 1.293-.099 2.618-.066 3.944 0 1.293.132 2.619.33 3.845.033.166-.165.398-.33.398zM70.33 2.469c-.726.265-1.518.43-2.244.696-1.32.43-2.21.994-3.133 2.021-.924.995-1.518 2.188-2.045 3.448-.528 1.292-.89 2.717-1.287 4.076 1.188-.828 2.573-1.558 4.024-1.79a5.387 5.387 0 0 1 3.827.763c1.187.762 1.979 2.088 2.309 3.48.33 1.491.197 2.884-.561 4.21a6.642 6.642 0 0 1-2.936 2.784c-1.055.53-2.44.696-3.694.497-1.451-.2-2.606-.862-3.463-2.022-.924-1.26-1.188-2.784-1.155-4.342.066-2.154.693-4.475 1.254-6.231.692-2.122 1.682-4.442 3.397-6.099.825-.795 1.814-1.425 2.87-1.79.725-.232 1.484-.397 2.243-.63.725-.231 1.418-.53 2.045-1.06.197-.033.527 0 .593.199.132.199.132.464 0 .63a5.526 5.526 0 0 1-2.045 1.16zm-.067 11.8a3.698 3.698 0 0 0-2.243-1.99c-.956-.331-2.177-.265-3.133.034-1.32.397-2.54 1.193-3.596 2.154-.296 1.458-.263 3.215.231 4.54.231.664.693 1.26 1.287 1.724.99.796 2.012.895 3.265.763 1.353-.133 2.573-.763 3.563-1.79.791-.796 1.121-1.591 1.154-2.751.033-.961-.165-1.923-.528-2.685zM79.368 21.03a6.7 6.7 0 0 1-2.935 1.491c-.825.199-1.98.298-2.672-.398-.198-.165-.495-.696-.198-.994.23.166.396.298.594.398.132.1.264.165.428.165-.032-2.287.1-6.695.165-8.915.033-.53-.032-1.094 0-1.624.066-.53.165-1.061.594-1.459.297-.1.56-.166.726.166-.165.597-.165 1.657-.198 2.817 0 1.06 0 2.188-.033 2.983a3.858 3.858 0 0 1 1.748-.663c.759-.066 1.55.067 2.177.431.99.53 1.583 1.69 1.32 2.884-.199 1.027-.891 1.988-1.716 2.718zm.429-4.077c-.396-.63-1.088-.862-1.847-.862-.759.033-1.583.331-2.078.796l-.264 4.74c1.022-.233 2.078-.697 2.936-1.426.593-.497 1.154-1.094 1.385-1.856.165-.464.132-1.028-.132-1.392zm6.86 5.933c-.824-.232-.824-1.06-.923-1.724-.494-3.778-.198-7.424.297-11.17.297-.464.825-.066.957.2a12.9 12.9 0 0 1-.1 2.253c-.065.73-.164 1.492-.164 2.254-.033 1.293-.1 2.618-.066 3.944 0 1.293.132 2.619.33 3.845.033.166-.165.398-.33.398z" fill="#262626"/></svg>
